X: 4
T: Tommy Peoples'
R: reel
M: 4/4
L: 1/8
K: Bmin
B3 c dBAF | B3 c dfed | B3 c d3 B| ABde fded |B3 c dBAF | BABc dfed | BA A/A/A d2 Bd | ABde fded ||dfaf bfaf | dfaf (3ggg fg | afef d2 Bd | ABde fdec |dfaf bfaf | dfaf (3ggg fg | afef dFBF | ABde fded ||


Tune 192	Setting 192

